; generated by Slic3r 1.2.9 on 2016-10-12 at 22:49:31

; external perimeters extrusion width = 0.40mm
; perimeters extrusion width = 0.40mm
; infill extrusion width = 0.74mm
; solid infill extrusion width = 0.68mm
; top infill extrusion width = 0.40mm

M190 S50 ; set bed temperature
M104 S205 ; set temperature
M42 S1 ; enciende el LED
G4 P500;
M42 S0 ; apaga el LED
G4 P500;
M42 S1 ; enciende el LED
G4 P100;
M42 S0 ; apaga el LED
G4 P100;
M42 S1 ; enciende el LED
G4 P100;
M42 S0 ; apaga el LED
G4 P400;
M42 S1 ; enciende el LED
G4 P500;
M42 S0 ; apaga el LED

G28 ; home all axes
M109 S205 ; wait for temperature to be reached
G21 ; set units to millimeters
G90 ; use absolute coordinates
M82 ; use absolute distances for extrusion
G92 E0
M106 S255
G1 E-1.50000 F3600.00000
G92 E0
G1 Z0.300 F7800.000
G1 X46.467 Y74.430 F7800.000
G1 E1.50000 F3600.00000
M204 S1000
G1 X47.750 Y73.830 E1.55041 F2160.000
G1 X101.000 Y73.830 E3.44511
G1 X102.071 Y74.218 E3.48563
G1 X102.671 Y75.501 E3.53605 F2160.000
G1 X102.671 Y105.499 E4.60343
G1 X102.283 Y106.570 E4.64395
G1 X101.000 Y107.170 E4.69436
G1 X47.750 Y107.170 E6.58906
G1 X46.679 Y106.782 E6.62959
G1 X46.079 Y105.499 E6.68000
G1 X46.079 Y75.501 E7.74738
G1 X46.446 Y74.486 E7.78577
G1 X46.798 Y74.566 F7800.000
G1 X47.750 Y74.165 E7.82252 F2160.000
G1 X101.000 Y74.165 E9.71722
G1 X101.938 Y74.550 E9.75331
G1 X102.336 Y75.501 E9.78997 F2160.000
G1 X102.336 Y105.499 E10.85735
G1 X101.951 Y106.437 E10.89344
G1 X101.000 Y106.835 E10.93010
G1 X47.750 Y106.835 E12.82480
G1 X46.812 Y106.450 E12.86088
G1 X46.414 Y105.499 E12.89754
G1 X46.414 Y75.501 E13.96493
G1 X46.775 Y74.621 E13.99875
G1 E12.49875 F3600.00000
G92 E0
G1 X83.874 Y79.376 F7800.000
G1 E1.50000 F3600.00000
G1 X83.874 Y76.372 E1.60690 F2400.000
G1 X100.129 Y76.372 E2.18526
G1 X100.129 Y104.628 E3.19065
G1 X48.621 Y104.628 E5.02335
G1 X48.621 Y76.372 E6.02873
G1 X64.876 Y76.372 E6.60709
G1 X64.876 Y79.376 E6.71399
G1 X74.124 Y79.376 E7.04307
G1 X74.124 Y76.372 E7.14997
G1 X74.626 Y76.372 E7.16781
G1 X74.626 Y79.376 E7.27472
G1 X83.814 Y79.376 E7.60166
G1 X83.539 Y79.041 F7800.000
G1 X83.539 Y76.036 E7.70856 F2400.000
G1 X100.464 Y76.036 E8.31080
G1 X100.464 Y104.964 E9.34007
G1 X48.286 Y104.964 E11.19665
G1 X48.286 Y76.036 E12.22592
G1 X65.211 Y76.036 E12.82816
G1 X65.211 Y79.041 E12.93507
G1 X73.789 Y79.041 E13.24026
G1 X73.789 Y76.036 E13.34716
G1 X74.961 Y76.036 E13.38889
G1 X74.961 Y79.041 E13.49579
G1 X83.479 Y79.041 E13.79885
G1 X83.203 Y78.705 F7800.000
G1 X83.203 Y75.701 E13.90575 F1680.000
G1 X100.800 Y75.701 E14.53187
G1 X100.800 Y105.299 E15.58502
G1 X47.950 Y105.299 E17.46549
G1 X47.950 Y75.701 E18.51865
G1 X65.547 Y75.701 E19.14477
G1 X65.547 Y78.705 E19.25167
G1 X73.453 Y78.705 E19.53298
G1 X73.453 Y75.701 E19.63988
G1 X75.297 Y75.701 E19.70549
G1 X75.297 Y78.705 E19.81240
G1 X83.143 Y78.705 E20.09157
G1 X83.603 Y78.705 F7800.000
G1 E18.59157 F3600.00000
G92 E0
G1 X74.375 Y79.544 F7800.000
G1 E1.50000 F3600.00000
G1 X74.375 Y76.540 E1.60690 F960.000
G1 E0.10690 F3600.00000
G92 E0
G1 X64.732 Y77.058 F7800.000
G1 E1.50000 F3600.00000
G1 X64.189 Y76.516 E1.52732 F2400.000
G1 X63.715 Y76.516 E1.54422
G1 X64.732 Y77.533 E1.59544
G1 X64.732 Y78.008 E1.61234
G1 X63.240 Y76.516 E1.68747
G1 X62.765 Y76.516 E1.70437
G1 X64.732 Y78.483 E1.80340
G1 X64.732 Y78.958 E1.82031
G1 X62.290 Y76.516 E1.94324
G1 X61.815 Y76.516 E1.96014
G1 X89.784 Y104.484 E3.36812
G1 X90.259 Y104.484 E3.38502
G1 X65.295 Y79.520 E4.64175
G1 X65.769 Y79.520 E4.65865
G1 X90.733 Y104.484 E5.91537
G1 X91.208 Y104.484 E5.93228
G1 X66.244 Y79.520 E7.18900
G1 X66.719 Y79.520 E7.20591
G1 X91.683 Y104.484 E8.46263
G1 X92.158 Y104.484 E8.47953
G1 X67.194 Y79.520 E9.73626
G1 X67.669 Y79.520 E9.75316
G1 X92.633 Y104.484 E11.00989
G1 X93.108 Y104.484 E11.02679
G1 X68.144 Y79.520 E12.28351
G1 X68.618 Y79.520 E12.30042
G1 X93.583 Y104.484 E13.55714
G1 X94.057 Y104.484 E13.57404
G1 X69.093 Y79.520 E14.83077
G1 X69.568 Y79.520 E14.84767
G1 X94.532 Y104.484 E16.10440
G1 X95.007 Y104.484 E16.12130
G1 X70.043 Y79.520 E17.37802
G1 X70.518 Y79.520 E17.39493
G1 X95.482 Y104.484 E18.65165
G1 X95.957 Y104.484 E18.66856
G1 X70.993 Y79.520 E19.92528
G1 X71.467 Y79.520 E19.94218
G1 X96.432 Y104.484 E21.19891
G1 X96.906 Y104.484 E21.21581
G1 X71.942 Y79.520 E22.47254
G1 X72.417 Y79.520 E22.48944
G1 X97.381 Y104.484 E23.74616
G1 X97.856 Y104.484 E23.76307
G1 X72.892 Y79.520 E25.01979
G1 X73.367 Y79.520 E25.03669
G1 X98.331 Y104.484 E26.29342
G1 X98.806 Y104.484 E26.31032
G1 X73.842 Y79.520 E27.56705
G1 X74.031 Y79.710 E27.57659
G1 X74.484 Y79.688 E27.59274
G1 X99.281 Y104.484 E28.84101
G1 X99.755 Y104.484 E28.85792
G1 X74.791 Y79.520 E30.11464
G1 X75.266 Y79.520 E30.13155
G1 X99.985 Y104.239 E31.37592
G1 X99.985 Y103.764 E31.39283
G1 X75.741 Y79.520 E32.61330
G1 X76.216 Y79.520 E32.63020
G1 X99.985 Y103.289 E33.82677
G1 X99.985 Y102.814 E33.84367
G1 X76.691 Y79.520 E35.01634
G1 X77.166 Y79.520 E35.03324
G1 X99.985 Y102.340 E36.18200
G1 X99.985 Y101.865 E36.19890
G1 X77.640 Y79.520 E37.32376
G1 X78.115 Y79.520 E37.34066
G1 X99.985 Y101.390 E38.44161
G1 X99.985 Y100.915 E38.45852
G1 X78.590 Y79.520 E39.53556
G1 X79.065 Y79.520 E39.55247
G1 X99.985 Y100.440 E40.60561
G1 X99.985 Y99.965 E40.62251
G1 X79.540 Y79.520 E41.65175
G1 X80.015 Y79.520 E41.66866
G1 X99.985 Y99.491 E42.67399
G1 X99.985 Y99.016 E42.69089
G1 X80.490 Y79.520 E43.67232
G1 X80.964 Y79.520 E43.68923
G1 X99.985 Y98.541 E44.64675
G1 X99.985 Y98.066 E44.66366
G1 X81.439 Y79.520 E45.59728
G1 X81.914 Y79.520 E45.61418
G1 X99.985 Y97.591 E46.52390
G1 X99.985 Y97.116 E46.54080
G1 X82.389 Y79.520 E47.42662
G1 X82.864 Y79.520 E47.44352
G1 X99.985 Y96.642 E48.30543
G1 X99.985 Y96.167 E48.32233
G1 X83.339 Y79.520 E49.16034
G1 X83.813 Y79.520 E49.17724
G1 X99.985 Y95.692 E49.99134
G1 X99.985 Y95.217 E50.00824
G1 X84.018 Y79.250 E50.81205
G1 X84.018 Y78.775 E50.82895
G1 X99.985 Y94.742 E51.63275
G1 X99.985 Y94.267 E51.64966
G1 X84.018 Y78.300 E52.45346
G1 X84.018 Y77.825 E52.47036
G1 X99.985 Y93.792 E53.27417
G1 X99.985 Y93.318 E53.29107
G1 X84.018 Y77.351 E54.09488
G1 X84.018 Y76.876 E54.11178
G1 X99.985 Y92.843 E54.91558
G1 X99.985 Y92.368 E54.93249
G1 X84.133 Y76.516 E55.73051
G1 X84.608 Y76.516 E55.74741
G1 X99.985 Y91.893 E56.52153
G1 X99.985 Y91.418 E56.53843
G1 X85.083 Y76.516 E57.28865
G1 X85.557 Y76.516 E57.30555
G1 X99.985 Y90.943 E58.03186
G1 X99.985 Y90.469 E58.04876
G1 X86.032 Y76.516 E58.75117
G1 X86.507 Y76.516 E58.76807
G1 X99.985 Y89.994 E59.44657
G1 X99.985 Y89.519 E59.46347
G1 X86.982 Y76.516 E60.11807
G1 X87.457 Y76.516 E60.13497
G1 X99.985 Y89.044 E60.76566
G1 X99.985 Y88.569 E60.78257
G1 X87.932 Y76.516 E61.38935
G1 X88.406 Y76.516 E61.40626
G1 X99.985 Y88.094 E61.98914
G1 X99.985 Y87.619 E62.00604
G1 X88.881 Y76.516 E62.56502
G1 X89.356 Y76.516 E62.58193
G1 X99.985 Y87.145 E63.11700
G1 X99.985 Y86.670 E63.13390
G1 X89.831 Y76.516 E63.64507
G1 X90.306 Y76.516 E63.66198
G1 X99.985 Y86.195 E64.14924
G1 X99.985 Y85.720 E64.16615
G1 X90.781 Y76.516 E64.62951
G1 X91.255 Y76.516 E64.64641
G1 X99.985 Y85.245 E65.08587
G1 X99.985 Y84.770 E65.10277
G1 X91.730 Y76.516 E65.51833
G1 X92.205 Y76.516 E65.53523
G1 X99.985 Y84.296 E65.92688
G1 X99.985 Y83.821 E65.94378
G1 X92.680 Y76.516 E66.31153
G1 X93.155 Y76.516 E66.32843
G1 X99.985 Y83.346 E66.67227
G1 X99.985 Y82.871 E66.68917
G1 X93.630 Y76.516 E67.00911
G1 X94.105 Y76.516 E67.02601
G1 X99.985 Y82.396 E67.32205
G1 X99.985 Y81.921 E67.33895
G1 X94.579 Y76.516 E67.61108
G1 X95.054 Y76.516 E67.62798
G1 X99.985 Y81.447 E67.87621
G1 X99.985 Y80.972 E67.89311
G1 X95.529 Y76.516 E68.11743
G1 X96.004 Y76.516 E68.13433
G1 X99.985 Y80.497 E68.33475
G1 X99.985 Y80.022 E68.35165
G1 X96.479 Y76.516 E68.52816
G1 X96.954 Y76.516 E68.54506
G1 X99.985 Y79.547 E68.69767
G1 X99.985 Y79.072 E68.71458
G1 X97.428 Y76.516 E68.84328
G1 X97.903 Y76.516 E68.86018
G1 X99.985 Y78.597 E68.96498
G1 X99.985 Y78.123 E68.98188
G1 X98.378 Y76.516 E69.06278
G1 X98.853 Y76.516 E69.07968
G1 X99.985 Y77.648 E69.13667
G1 X99.985 Y77.173 E69.15357
G1 X99.328 Y76.516 E69.18666
G1 X99.803 Y76.516 E69.20356
G1 X99.985 Y76.698 E69.21274
G1 E67.71274 F3600.00000
G92 E0
G1 X61.340 Y76.516 F7800.000
G1 E1.50000 F3600.00000
G1 X89.309 Y104.484 E2.90798 F2400.000
G1 X88.834 Y104.484 E2.92488
G1 X60.865 Y76.516 E4.33285
G1 X60.391 Y76.516 E4.34976
G1 X88.359 Y104.484 E5.75773
G1 X87.884 Y104.484 E5.77463
G1 X59.916 Y76.516 E7.18261
G1 X59.441 Y76.516 E7.19951
G1 X87.410 Y104.484 E8.60749
G1 X86.935 Y104.484 E8.62439
G1 X58.966 Y76.516 E10.03237
G1 X58.491 Y76.516 E10.04927
G1 X86.460 Y104.484 E11.45725
G1 X85.985 Y104.484 E11.47415
G1 X58.016 Y76.516 E12.88212
G1 X57.542 Y76.516 E12.89903
G1 X85.510 Y104.484 E14.30700
G1 X85.035 Y104.484 E14.32390
G1 X57.067 Y76.516 E15.73188
G1 X56.592 Y76.516 E15.74878
G1 X84.560 Y104.484 E17.15676
G1 X84.086 Y104.484 E17.17366
G1 X56.117 Y76.516 E18.58164
G1 X55.642 Y76.516 E18.59854
G1 X83.611 Y104.484 E20.00652
G1 X83.136 Y104.484 E20.02342
G1 X55.167 Y76.516 E21.43139
G1 X54.693 Y76.516 E21.44830
G1 X82.661 Y104.484 E22.85627
G1 X82.186 Y104.484 E22.87317
G1 X54.218 Y76.516 E24.28115
G1 X53.743 Y76.516 E24.29805
G1 X81.711 Y104.484 E25.70603
G1 X81.237 Y104.484 E25.72293
G1 X53.268 Y76.516 E27.13091
G1 X52.793 Y76.516 E27.14781
G1 X80.762 Y104.484 E28.55579
G1 X80.287 Y104.484 E28.57269
G1 X52.318 Y76.516 E29.98066
G1 X51.843 Y76.516 E29.99757
G1 X79.812 Y104.484 E31.40554
G1 X79.337 Y104.484 E31.42244
G1 X51.369 Y76.516 E32.83042
G1 X50.894 Y76.516 E32.84732
G1 X78.862 Y104.484 E34.25530
G1 X78.388 Y104.484 E34.27220
G1 X50.419 Y76.516 E35.68018
G1 X49.944 Y76.516 E35.69708
G1 X77.913 Y104.484 E37.10506
G1 X77.438 Y104.484 E37.12196
G1 X49.469 Y76.516 E38.52993
G1 X48.994 Y76.516 E38.54684
G1 X76.963 Y104.484 E39.95481
G1 X76.488 Y104.484 E39.97171
G1 X48.765 Y76.761 E41.36734
G1 X48.765 Y77.236 E41.38424
G1 X76.013 Y104.484 E42.75596
G1 X75.538 Y104.484 E42.77286
G1 X48.765 Y77.711 E44.12067
G1 X48.765 Y78.186 E44.13758
G1 X75.064 Y104.484 E45.46149
G1 X74.589 Y104.484 E45.47839
G1 X48.765 Y78.660 E46.77840
G1 X48.765 Y79.135 E46.79530
G1 X74.114 Y104.484 E48.07140
G1 X73.639 Y104.484 E48.08830
G1 X48.765 Y79.610 E49.34050
G1 X48.765 Y80.085 E49.35740
G1 X73.164 Y104.484 E50.58569
G1 X72.689 Y104.484 E50.60260
G1 X48.765 Y80.560 E51.80699
G1 X48.765 Y81.035 E51.82389
G1 X72.215 Y104.484 E53.00437
G1 X71.740 Y104.484 E53.02128
G1 X48.765 Y81.510 E54.17786
G1 X48.765 Y81.984 E54.19476
G1 X71.265 Y104.484 E55.32743
G1 X70.790 Y104.484 E55.34434
G1 X48.765 Y82.459 E56.45311
G1 X48.765 Y82.934 E56.47001
G1 X70.315 Y104.484 E57.55488
G1 X69.840 Y104.484 E57.57178
G1 X48.765 Y83.409 E58.63274
G1 X48.765 Y83.884 E58.64965
G1 X69.366 Y104.484 E59.68671
G1 X68.891 Y104.484 E59.70361
G1 X48.765 Y84.359 E60.71676
G1 X48.765 Y84.833 E60.73367
G1 X68.416 Y104.484 E61.72292
G1 X67.941 Y104.484 E61.73982
G1 X48.765 Y85.308 E62.70517
G1 X48.765 Y85.783 E62.72207
G1 X67.466 Y104.484 E63.66351
G1 X66.991 Y104.484 E63.68041
G1 X48.765 Y86.258 E64.59795
G1 X48.765 Y86.733 E64.61485
G1 X66.516 Y104.484 E65.50849
G1 X66.042 Y104.484 E65.52539
G1 X48.765 Y87.208 E66.39512
G1 X48.765 Y87.682 E66.41202
G1 X65.567 Y104.484 E67.25785
G1 X65.092 Y104.484 E67.27475
G1 X48.765 Y88.157 E68.09667
G1 X48.765 Y88.632 E68.11357
G1 X64.617 Y104.484 E68.91159
G1 X64.142 Y104.484 E68.92849
G1 X48.765 Y89.107 E69.70260
G1 X48.765 Y89.582 E69.71951
G1 X63.667 Y104.484 E70.46971
G1 X63.193 Y104.484 E70.48662
G1 X48.765 Y90.057 E71.21292
G1 X48.765 Y90.532 E71.22982
G1 X62.718 Y104.484 E71.93222
G1 X62.243 Y104.484 E71.94913
G1 X48.765 Y91.006 E72.62762
G1 X48.765 Y91.481 E72.64452
G1 X61.768 Y104.484 E73.29912
G1 X61.293 Y104.484 E73.31602
G1 X48.765 Y91.956 E73.94671
G1 X48.765 Y92.431 E73.96361
G1 X60.818 Y104.484 E74.57039
G1 X60.343 Y104.484 E74.58729
G1 X48.765 Y92.906 E75.17017
G1 X48.765 Y93.381 E75.18707
G1 X59.869 Y104.484 E75.74605
G1 X59.394 Y104.484 E75.76295
G1 X48.765 Y93.855 E76.29802
G1 X48.765 Y94.330 E76.31492
G1 X58.919 Y104.484 E76.82609
G1 X58.444 Y104.484 E76.84299
G1 X48.765 Y94.805 E77.33025
G1 X48.765 Y95.280 E77.34716
G1 X57.969 Y104.484 E77.81051
G1 X57.494 Y104.484 E77.82742
G1 X48.765 Y95.755 E78.26687
G1 X48.765 Y96.230 E78.28377
G1 X57.020 Y104.484 E78.69932
G1 X56.545 Y104.484 E78.71622
G1 X48.765 Y96.705 E79.10787
G1 X48.765 Y97.179 E79.12477
G1 X56.070 Y104.484 E79.49251
G1 X55.595 Y104.484 E79.50941
G1 X48.765 Y97.654 E79.85325
G1 X48.765 Y98.129 E79.87015
G1 X55.120 Y104.484 E80.19008
G1 X54.645 Y104.484 E80.20699
G1 X48.765 Y98.604 E80.50301
G1 X48.765 Y99.079 E80.51992
G1 X54.171 Y104.484 E80.79204
G1 X53.696 Y104.484 E80.80894
G1 X48.765 Y99.554 E81.05716
G1 X48.765 Y100.028 E81.07406
G1 X53.221 Y104.484 E81.29838
G1 X52.746 Y104.484 E81.31528
G1 X48.765 Y100.503 E81.51569
G1 X48.765 Y100.978 E81.53259
G1 X52.271 Y104.484 E81.70910
G1 X51.796 Y104.484 E81.72600
G1 X48.765 Y101.453 E81.87861
G1 X48.765 Y101.928 E81.89551
G1 X51.321 Y104.484 E82.02421
G1 X50.847 Y104.484 E82.04111
G1 X48.765 Y102.403 E82.14590
G1 X48.765 Y102.877 E82.16281
G1 X50.372 Y104.484 E82.24369
G1 X49.897 Y104.484 E82.26060
G1 X48.765 Y103.352 E82.31758
G1 X48.765 Y103.827 E82.33449
G1 X49.422 Y104.484 E82.36757
G1 X48.947 Y104.484 E82.38447
G1 X48.765 Y104.302 E82.39365
M104 S200 ; set temperature
G1 E80.89365 F3600.00000
G92 E0
G1 Z0.480 F7800.000
G1 X83.926 Y79.428 F7800.000
G1 E1.50000 F3600.00000
G1 X83.926 Y76.423 E1.56906 F3000.000
G1 X100.077 Y76.423 E1.94034
G1 X100.077 Y104.577 E2.58749
G1 X48.673 Y104.577 E3.76911
G1 X48.673 Y76.423 E4.41626
G1 X64.824 Y76.423 E4.78754
G1 X64.824 Y79.428 E4.85660
G1 X74.176 Y79.428 E5.07156
G1 X74.176 Y76.423 E5.14063
G1 X74.574 Y76.423 E5.14979
G1 X74.574 Y79.428 E5.21885
G1 X83.866 Y79.428 E5.43243
G1 X83.564 Y79.067 F7800.000
G1 X83.564 Y76.062 E5.50150 F3000.000
G1 X100.439 Y76.062 E5.88938
G1 X100.439 Y104.938 E6.55314
G1 X48.311 Y104.938 E7.75139
G1 X48.311 Y76.062 E8.41515
G1 X65.186 Y76.062 E8.80304
G1 X65.186 Y79.067 E8.87210
G1 X73.814 Y79.067 E9.07045
G1 X73.814 Y76.062 E9.13951
G1 X74.936 Y76.062 E9.16529
G1 X74.936 Y79.067 E9.23435
G1 X83.504 Y79.067 E9.43132
G1 X83.203 Y78.705 F7800.000
G1 X83.203 Y75.701 E9.50038 F2100.000
G1 X100.800 Y75.701 E9.90488
G1 X100.800 Y105.299 E10.58526
G1 X47.950 Y105.299 E11.80011
G1 X47.950 Y75.701 E12.48049
G1 X65.547 Y75.701 E12.88499
G1 X65.547 Y78.705 E12.95405
G1 X73.453 Y78.705 E13.13579
G1 X73.453 Y75.701 E13.20485
G1 X75.297 Y75.701 E13.24724
G1 X75.297 Y78.705 E13.31630
G1 X83.143 Y78.705 E13.49666
G1 X83.603 Y78.705 F7800.000
G1 X83.435 Y79.623 F7800.000
G1 X58.676 Y104.382 E14.92788 F3000.000
G1 X57.767 Y104.382 E14.96502
G1 X82.526 Y79.623 E16.39624
G1 X81.617 Y79.623 E16.43339
G1 X56.858 Y104.382 E17.86461
G1 X55.950 Y104.382 E17.90175
G1 X80.708 Y79.623 E19.33297
G1 X79.799 Y79.623 E19.37012
G1 X55.041 Y104.382 E20.80134
G1 X54.132 Y104.382 E20.83848
G1 X78.891 Y79.623 E22.26970
G1 X77.982 Y79.623 E22.30685
G1 X53.223 Y104.382 E23.73806
G1 X52.314 Y104.382 E23.77521
G1 X77.073 Y79.623 E25.20643
G1 X76.164 Y79.623 E25.24358
G1 X51.406 Y104.382 E26.67479
G1 X50.497 Y104.382 E26.71194
G1 X75.256 Y79.623 E28.14316
G1 X74.347 Y79.623 E28.18030
G1 X49.588 Y104.382 E29.61152
G1 X48.868 Y104.193 E29.64196
G1 X73.438 Y79.623 E31.06230
G1 X72.529 Y79.623 E31.09945
G1 X48.868 Y103.285 E32.46725
G1 X48.868 Y102.376 E32.50440
G1 X71.621 Y79.623 E33.81967
G1 X70.712 Y79.623 E33.85681
G1 X48.868 Y101.467 E35.11955
G1 X48.868 Y100.558 E35.15670
G1 X69.803 Y79.623 E36.36691
G1 X68.894 Y79.623 E36.40405
G1 X48.868 Y99.650 E37.56173
G1 X48.868 Y98.741 E37.59887
G1 X67.986 Y79.623 E38.70401
G1 X67.077 Y79.623 E38.74116
G1 X48.868 Y97.832 E39.79377
G1 X48.868 Y96.923 E39.83091
G1 X66.168 Y79.623 E40.83099
G1 X65.259 Y79.623 E40.86813
G1 X48.868 Y96.014 E41.81568
G1 X48.868 Y95.106 E41.85282
G1 X64.629 Y79.344 E42.76396
G1 X64.629 Y78.435 E42.80110
G1 X48.868 Y94.197 E43.71224
G1 X48.868 Y93.288 E43.74938
G1 X64.629 Y77.526 E44.66051
G1 X64.629 Y76.618 E44.69763
G1 X48.868 Y92.379 E45.60872
