; generated by Slic3r 1.2.9 on 2016-09-18 at 10:29:55

; external perimeters extrusion width = 0.40mm
; perimeters extrusion width = 0.40mm
; infill extrusion width = 0.74mm
; solid infill extrusion width = 0.68mm
; top infill extrusion width = 0.40mm

M190 S50 ; set bed temperature
M104 S205 ; set temperature
M42 S1 ; enciende el LED
G4 P500;
M42 S0 ; apaga el LED
G4 P500;
M42 S1 ; enciende el LED
G4 P100;
M42 S0 ; apaga el LED
G4 P100;
M42 S1 ; enciende el LED
G4 P100;
M42 S0 ; apaga el LED
G4 P400;
M42 S1 ; enciende el LED
G4 P500;
M42 S0 ; apaga el LED

G28 ; home all axes
M109 S205 ; wait for temperature to be reached
G21 ; set units to millimeters
G90 ; use absolute coordinates
M82 ; use absolute distances for extrusion
G92 E0
M106 S255
G1 E-1.50000 F3600.00000
G92 E0
G1 Z0.300 F7800.000
G1 X93.379 Y93.379 F7800.000
G1 E1.50000 F3600.00000
M204 S1000
G1 X94.149 Y92.689 E1.53680 F1918.087
G1 X94.935 Y92.125 E1.57122
G1 X95.767 Y91.658 E1.60516
G1 X96.676 Y91.250 E1.64060
G1 X97.591 Y90.951 E1.67485
G1 X98.185 Y90.811 E1.69660
G1 X98.528 Y90.751 E1.70897
G1 X99.051 Y90.678 E1.72777
G1 X99.459 Y90.651 E1.74231
G1 X99.926 Y90.630 E1.75894
G1 X100.526 Y90.650 E1.78030
G1 X100.949 Y90.678 E1.79537 F1918.087
G1 X101.815 Y90.811 E1.82654
G1 X102.577 Y90.997 E1.85447
G1 X103.521 Y91.330 E1.89008
G1 X104.445 Y91.766 E1.92643
G1 X105.065 Y92.125 E1.95192
G1 X105.851 Y92.689 E1.98634
G1 X106.447 Y93.216 E2.01468
G1 X106.678 Y93.436 E2.02602
G1 X107.311 Y94.149 E2.05995
G1 X107.781 Y94.791 E2.08824
G1 X108.234 Y95.555 E2.11986
G1 X108.398 Y95.880 E2.13281
G1 X108.776 Y96.748 E2.16648
G1 X109.049 Y97.591 E2.19801
G1 X109.189 Y98.185 E2.21975
G1 X109.249 Y98.528 E2.23213
G1 X109.335 Y99.191 E2.25591
G1 X109.370 Y100.074 E2.28735
G1 X109.322 Y100.949 E2.31852
G1 X109.212 Y101.700 E2.34554
G1 X109.003 Y102.577 E2.37763
G1 X108.776 Y103.252 E2.40296
G1 X108.398 Y104.120 E2.43664
G1 X108.191 Y104.524 E2.45281
G1 X107.781 Y105.209 E2.48121
G1 X107.210 Y105.975 E2.51521
G1 X106.678 Y106.564 E2.54342
G1 X105.975 Y107.210 E2.57739
G1 X105.209 Y107.781 E2.61139
G1 X104.524 Y108.191 E2.63979
G1 X104.120 Y108.398 E2.65596
G1 X103.324 Y108.750 E2.68691
G1 X102.577 Y109.003 E2.71498
G1 X101.700 Y109.212 E2.74706
G1 X100.949 Y109.322 E2.77409
G1 X100.074 Y109.370 E2.80526
G1 X99.191 Y109.335 E2.83670
G1 X98.567 Y109.255 E2.85909
G1 X98.185 Y109.189 E2.87285
G1 X97.324 Y108.973 E2.90445
G1 X96.559 Y108.704 E2.93332
G1 X95.555 Y108.234 E2.97274
G1 X94.791 Y107.781 E3.00436
G1 X94.149 Y107.311 E3.03266
G1 X93.436 Y106.678 E3.06658
G1 X92.790 Y105.975 E3.10055
G1 X92.125 Y105.065 E3.14067
G1 X91.766 Y104.445 E3.16617
G1 X91.330 Y103.521 E3.20251
G1 X91.027 Y102.676 E3.23446
G1 X90.936 Y102.350 E3.24650
G1 X90.788 Y101.700 E3.27021
G1 X90.665 Y100.809 E3.30221
G1 X90.630 Y99.926 E3.33366
G1 X90.678 Y99.051 E3.36483
G1 X90.788 Y98.300 E3.39185
G1 X90.997 Y97.423 E3.42393
G1 X91.250 Y96.676 E3.45200
G1 X91.602 Y95.880 E3.48295
G1 X91.809 Y95.476 E3.49912
G1 X92.219 Y94.791 E3.52752
G1 X92.689 Y94.149 E3.55581
G1 X93.337 Y93.422 E3.59048
G1 X93.616 Y93.616 F7800.000
G1 X94.349 Y92.958 E3.62552 F1918.087
G1 X95.104 Y92.414 E3.65862
G1 X95.917 Y91.958 E3.69182
G1 X96.799 Y91.563 E3.72618
G1 X97.679 Y91.275 E3.75915
G1 X98.262 Y91.137 E3.78045
G1 X98.582 Y91.082 E3.79200
G1 X99.097 Y91.011 E3.81051
G1 X99.477 Y90.986 E3.82405
G1 X99.941 Y90.965 E3.84058
G1 X100.511 Y90.985 E3.86088
G1 X100.903 Y91.011 E3.87484 F1918.087
G1 X101.738 Y91.137 E3.90490
G1 X102.489 Y91.321 E3.93240
G1 X103.382 Y91.636 E3.96610
G1 X104.292 Y92.065 E4.00189
G1 X104.896 Y92.414 E4.02673
G1 X105.651 Y92.958 E4.05984
G1 X106.223 Y93.466 E4.08703
G1 X106.430 Y93.662 E4.09718
G1 X107.042 Y94.349 E4.12992
G1 X107.510 Y94.989 E4.15813
G1 X107.935 Y95.708 E4.18788
G1 X108.092 Y96.019 E4.20026
G1 X108.459 Y96.856 E4.23277
G1 X108.725 Y97.679 E4.26356
G1 X108.863 Y98.262 E4.28486
G1 X108.918 Y98.582 E4.29641
G1 X109.000 Y99.209 E4.31891
G1 X109.035 Y100.059 E4.34919
G1 X108.989 Y100.903 E4.37925
G1 X108.881 Y101.647 E4.40600
G1 X108.679 Y102.489 E4.43681
G1 X108.458 Y103.144 E4.46141
G1 X108.092 Y103.981 E4.49392
G1 X107.901 Y104.355 E4.50888
G1 X107.510 Y105.011 E4.53605
G1 X106.960 Y105.750 E4.56882
G1 X106.430 Y106.338 E4.59700
G1 X105.750 Y106.960 E4.62977
G1 X105.011 Y107.510 E4.66255
G1 X104.355 Y107.901 E4.68971
G1 X103.981 Y108.092 E4.70467
G1 X103.201 Y108.437 E4.73501
G1 X102.489 Y108.679 E4.76179
G1 X101.647 Y108.881 E4.79260
G1 X100.903 Y108.989 E4.81934
G1 X100.059 Y109.035 E4.84941
G1 X99.209 Y109.000 E4.87969
G1 X98.613 Y108.922 E4.90108
G1 X98.262 Y108.863 E4.91373
G1 X97.433 Y108.655 E4.94416
G1 X96.682 Y108.391 E4.97247
G1 X95.708 Y107.935 E5.01072
G1 X94.989 Y107.510 E5.04046
G1 X94.349 Y107.042 E5.06867
G1 X93.662 Y106.430 E5.10141
G1 X93.040 Y105.750 E5.13419
G1 X92.414 Y104.896 E5.17185
G1 X92.065 Y104.292 E5.19670
G1 X91.636 Y103.382 E5.23248
G1 X91.345 Y102.567 E5.26326
G1 X91.263 Y102.273 E5.27413
G1 X91.119 Y101.647 E5.29701
G1 X91.000 Y100.791 E5.32773
G1 X90.965 Y99.941 E5.35801
G1 X91.011 Y99.097 E5.38808
G1 X91.119 Y98.353 E5.41482
G1 X91.321 Y97.511 E5.44563
G1 X91.609 Y96.682 E5.47688
G1 X91.908 Y96.019 E5.50275
G1 X92.099 Y95.645 E5.51771
G1 X92.490 Y94.989 E5.54488
G1 X92.958 Y94.349 E5.57309
G1 X93.574 Y93.659 E5.60599
G1 E4.10599 F3600.00000
G92 E0
G1 X104.824 Y104.824 F7800.000
G1 E1.50000 F3600.00000
G1 X104.305 Y105.292 E1.52486 F2131.207
G1 X103.745 Y105.702 E1.54954
G1 X103.277 Y105.975 E1.56883
G1 X102.500 Y106.341 E1.59941
G1 X101.889 Y106.554 E1.62243
G1 X101.267 Y106.706 E1.64521
G1 X100.637 Y106.798 E1.66787
G1 X100.000 Y106.828 E1.69055
G1 X99.363 Y106.798 E1.71322
G1 X98.733 Y106.706 E1.73589
G1 X98.111 Y106.554 E1.75867
G1 X97.500 Y106.341 E1.78168
G1 X96.723 Y105.975 E1.81226
G1 X96.255 Y105.702 E1.83155
G1 X95.695 Y105.292 E1.85624
G1 X95.176 Y104.824 E1.88110
G1 X94.708 Y104.305 E1.90595
G1 X94.298 Y103.745 E1.93064
G1 X94.025 Y103.277 E1.94993
G1 X93.659 Y102.499 E1.98051
G1 X93.446 Y101.889 E2.00352
G1 X93.294 Y101.267 E2.02630
G1 X93.202 Y100.637 E2.04897
G1 X93.172 Y100.000 E2.07165
G1 X93.202 Y99.363 E2.09432
G1 X93.294 Y98.733 E2.11699
G1 X93.446 Y98.111 E2.13977
G1 X93.659 Y97.500 E2.16278
G1 X94.025 Y96.723 E2.19336
G1 X94.298 Y96.255 E2.21265
G1 X94.708 Y95.695 E2.23734
G1 X95.176 Y95.176 E2.26219
G1 X95.695 Y94.708 E2.28705
G1 X96.255 Y94.298 E2.31174
G1 X96.723 Y94.025 E2.33103
G1 X97.500 Y93.659 E2.36161
G1 X98.111 Y93.446 E2.38462
G1 X98.733 Y93.294 E2.40740
G1 X99.363 Y93.202 E2.43007
G1 X100.001 Y93.172 E2.45279
G1 X100.410 Y93.190 E2.46733
G1 X100.634 Y93.202 E2.47533 F2131.207
G1 X101.267 Y93.294 E2.49808
G1 X101.889 Y93.446 E2.52086
G1 X102.504 Y93.661 E2.54404
G1 X103.087 Y93.928 E2.56688
G1 X103.750 Y94.302 E2.59397
G1 X104.305 Y94.708 E2.61843
G1 X104.824 Y95.176 E2.64329
G1 X105.292 Y95.695 E2.66815
G1 X105.702 Y96.255 E2.69283
G1 X105.975 Y96.723 E2.71212
G1 X106.341 Y97.500 E2.74270
G1 X106.554 Y98.111 E2.76572
G1 X106.706 Y98.733 E2.78850
G1 X106.798 Y99.363 E2.81116
G1 X106.828 Y100.000 E2.83384
G1 X106.798 Y100.637 E2.85651
G1 X106.706 Y101.267 E2.87918
G1 X106.554 Y101.889 E2.90196
G1 X106.341 Y102.499 E2.92497
G1 X105.975 Y103.277 E2.95555
G1 X105.702 Y103.745 E2.97484
G1 X105.292 Y104.305 E2.99953
G1 X104.864 Y104.779 E3.02225
G1 X105.073 Y105.049 F7800.000
G1 X104.517 Y105.552 E3.04893 F2131.207
G1 X103.930 Y105.983 E3.07485
G1 X103.433 Y106.272 E3.09529
G1 X102.627 Y106.652 E3.12702
G1 X101.984 Y106.877 E3.15123
G1 X101.331 Y107.036 E3.17516
G1 X100.669 Y107.132 E3.19897
G1 X100.000 Y107.164 E3.22279
G1 X99.331 Y107.132 E3.24661
G1 X98.669 Y107.036 E3.27042
G1 X98.016 Y106.877 E3.29435
G1 X97.373 Y106.652 E3.31857
G1 X96.567 Y106.272 E3.35029
G1 X96.070 Y105.983 E3.37073
G1 X95.483 Y105.552 E3.39665
G1 X94.939 Y105.061 E3.42273
G1 X94.448 Y104.517 E3.44881
G1 X94.017 Y103.930 E3.47473
G1 X93.728 Y103.433 E3.49516
G1 X93.348 Y102.627 E3.52689
G1 X93.123 Y101.984 E3.55110
G1 X92.964 Y101.331 E3.57503
G1 X92.868 Y100.669 E3.59884
G1 X92.836 Y100.000 E3.62266
G1 X92.868 Y99.331 E3.64648
G1 X92.964 Y98.669 E3.67030
G1 X93.123 Y98.016 E3.69422
G1 X93.348 Y97.373 E3.71844
G1 X93.728 Y96.567 E3.75016
G1 X94.017 Y96.070 E3.77060
G1 X94.448 Y95.483 E3.79652
G1 X94.939 Y94.939 E3.82260
G1 X95.483 Y94.448 E3.84868
G1 X96.070 Y94.017 E3.87460
G1 X96.567 Y93.728 E3.89503
G1 X97.373 Y93.348 E3.92676
G1 X98.016 Y93.123 E3.95097
G1 X98.669 Y92.964 E3.97490
G1 X99.331 Y92.868 E3.99871
G1 X100.001 Y92.836 E4.02256
G1 X100.426 Y92.855 E4.03770
G1 X100.667 Y92.868 E4.04630 F2131.207
G1 X101.331 Y92.964 E4.07017
G1 X101.984 Y93.123 E4.09409
G1 X102.629 Y93.349 E4.11841
G1 X103.240 Y93.629 E4.14231
G1 X103.933 Y94.019 E4.17060
G1 X104.517 Y94.448 E4.19639
G1 X105.061 Y94.939 E4.22246
G1 X105.552 Y95.483 E4.24854
G1 X105.983 Y96.070 E4.27446
G1 X106.272 Y96.567 E4.29490
G1 X106.652 Y97.373 E4.32662
G1 X106.877 Y98.016 E4.35084
G1 X107.036 Y98.669 E4.37477
G1 X107.132 Y99.331 E4.39858
G1 X107.164 Y100.000 E4.42240
G1 X107.132 Y100.669 E4.44622
G1 X107.036 Y101.331 E4.47003
G1 X106.877 Y101.984 E4.49396
G1 X106.652 Y102.627 E4.51818
G1 X106.272 Y103.433 E4.54990
G1 X105.983 Y103.930 E4.57034
G1 X105.552 Y104.517 E4.59626
G1 X105.113 Y105.004 E4.61959
G1 X105.322 Y105.273 F7800.000
G1 X104.729 Y105.813 E4.64810 F1491.845
G1 X104.114 Y106.264 E4.67526
G1 X103.590 Y106.570 E4.69684
G1 X102.754 Y106.963 E4.72971
G1 X102.080 Y107.199 E4.75513
G1 X101.395 Y107.366 E4.78020
G1 X100.701 Y107.467 E4.80516
G1 X100.000 Y107.500 E4.83013
G1 X99.299 Y107.467 E4.85510
G1 X98.605 Y107.366 E4.88005
G1 X97.920 Y107.199 E4.90512
G1 X97.246 Y106.963 E4.93054
G1 X96.410 Y106.570 E4.96341
G1 X95.886 Y106.264 E4.98499
G1 X95.271 Y105.813 E5.01215
G1 X94.701 Y105.299 E5.03945
G1 X94.187 Y104.729 E5.06675
G1 X93.736 Y104.114 E5.09390
G1 X93.430 Y103.590 E5.11549
G1 X93.037 Y102.754 E5.14835
G1 X92.801 Y102.080 E5.17377
G1 X92.634 Y101.395 E5.19884
G1 X92.533 Y100.701 E5.22380
G1 X92.500 Y100.000 E5.24877
G1 X92.533 Y99.299 E5.27374
G1 X92.634 Y98.605 E5.29869
G1 X92.801 Y97.920 E5.32377
G1 X93.037 Y97.246 E5.34919
G1 X93.430 Y96.410 E5.38205
G1 X93.736 Y95.886 E5.40364
G1 X94.187 Y95.271 E5.43079
G1 X94.701 Y94.701 E5.45809
G1 X95.271 Y94.187 E5.48539
G1 X95.886 Y93.736 E5.51254
G1 X96.410 Y93.430 E5.53413
G1 X97.246 Y93.037 E5.56700
G1 X97.920 Y92.801 E5.59241
G1 X98.605 Y92.634 E5.61749
G1 X99.299 Y92.533 E5.64244
G1 X100.000 Y92.500 E5.66742
G1 X100.442 Y92.519 E5.68316
G1 X100.700 Y92.533 E5.69236 F1491.845
G1 X101.395 Y92.634 E5.71734
G1 X102.080 Y92.801 E5.74241
G1 X102.755 Y93.037 E5.76787
G1 X103.393 Y93.330 E5.79282
G1 X104.115 Y93.737 E5.82233
G1 X104.729 Y94.187 E5.84943
G1 X105.299 Y94.701 E5.87673
G1 X105.813 Y95.271 E5.90403
G1 X106.264 Y95.886 E5.93119
G1 X106.570 Y96.410 E5.95277
G1 X106.963 Y97.246 E5.98564
G1 X107.199 Y97.920 E6.01106
G1 X107.366 Y98.605 E6.03613
G1 X107.467 Y99.299 E6.06108
G1 X107.500 Y100.000 E6.08605
G1 X107.467 Y100.701 E6.11102
G1 X107.366 Y101.395 E6.13598
G1 X107.199 Y102.080 E6.16105
G1 X106.963 Y102.754 E6.18647
G1 X106.570 Y103.590 E6.21934
G1 X106.264 Y104.114 E6.24092
G1 X105.813 Y104.729 E6.26808
G1 X105.362 Y105.229 E6.29202
G1 X104.937 Y105.165 F7800.000
G1 E4.79202 F3600.00000
G92 E0
G1 X106.321 Y97.961 F7800.000
G1 E1.50000 F3600.00000
G1 X102.039 Y93.679 E1.71685 F2131.207
G1 X101.368 Y93.486 E1.74186
G1 X106.514 Y98.632 E2.00250
G1 X106.620 Y99.216 E2.02374
G1 X100.784 Y93.380 E2.31928
G1 X100.257 Y93.330 E2.33825
G1 X106.668 Y99.742 E2.66297
G1 X106.677 Y100.228 E2.68037
G1 X99.772 Y93.323 E3.03004
G1 X99.316 Y93.345 E3.04639
G1 X106.655 Y100.684 E3.41805
G1 X106.595 Y101.101 E3.43314
G1 X98.899 Y93.405 E3.82287
G1 X98.499 Y93.484 E3.83745
G1 X106.516 Y101.501 E4.24346
G1 X106.423 Y101.885 E4.25761
G1 X98.115 Y93.577 E4.67833
G1 X97.760 Y93.700 E4.69178
G1 X106.300 Y102.240 E5.12426
G1 X106.168 Y102.585 E5.13750
G1 X97.415 Y93.832 E5.58077
G1 X97.090 Y93.985 E5.59362
G1 X106.015 Y102.910 E6.04559
G1 X105.862 Y103.235 E6.05844
G1 X96.765 Y94.138 E6.51911
G1 X96.463 Y94.313 E6.53163
G1 X105.687 Y103.537 E6.99878
G1 X105.499 Y103.827 E7.01114
G1 X96.173 Y94.501 E7.48343
G1 X95.897 Y94.703 E7.49567
G1 X105.297 Y104.103 E7.97169
G1 X105.083 Y104.366 E7.98385
G1 X95.634 Y94.917 E8.46236
G1 X95.391 Y95.152 E8.47446
G1 X104.848 Y104.609 E8.95338
G1 X104.609 Y104.848 E8.96548
G1 X95.152 Y95.391 E9.44440
G1 X94.917 Y95.634 E9.45650
G1 X104.366 Y105.083 E9.93501
G1 X104.103 Y105.297 E9.94717
G1 X94.703 Y95.897 E10.42319
G1 X94.501 Y96.173 E10.43543
G1 X103.827 Y105.499 E10.90772
G1 X103.537 Y105.687 E10.92008
G1 X94.313 Y96.463 E11.38722
G1 X94.138 Y96.765 E11.39974
G1 X103.235 Y105.862 E11.86041
G1 X102.910 Y106.015 E11.87327
G1 X93.985 Y97.090 E12.32523
G1 X93.832 Y97.415 E12.33809
G1 X102.585 Y106.168 E12.78135
G1 X102.240 Y106.300 E12.79460
G1 X93.700 Y97.760 E13.22708
G1 X93.577 Y98.115 E13.24053
G1 X101.885 Y106.423 E13.66124
G1 X101.501 Y106.516 E13.67540
G1 X93.484 Y98.499 E14.08141
G1 X93.405 Y98.899 E14.09598
G1 X101.101 Y106.595 E14.48571
G1 X100.684 Y106.655 E14.50081
G1 X93.345 Y99.316 E14.87247
G1 X93.323 Y99.772 E14.88881
G1 X100.228 Y106.677 E15.23848
G1 X99.742 Y106.668 E15.25588
G1 X93.332 Y100.258 E15.58053
G1 X93.380 Y100.784 E15.59945
G1 X99.216 Y106.620 E15.89499
G1 X98.632 Y106.514 E15.91623
G1 X93.486 Y101.368 E16.17686
G1 X93.679 Y102.039 E16.20188
G1 X97.961 Y106.321 E16.41873
G1 X97.129 Y105.966 F7800.000
G1 X94.034 Y102.871 E16.57547 F2131.207
G1 E15.07547 F3600.00000
G92 E0
G1 X94.994 Y104.309 F7800.000
G1 E1.50000 F3600.00000
G1 X95.691 Y105.006 E1.53527 F2131.207
G1 E0.03527 F3600.00000
G92 E0
G1 X105.966 Y97.129 F7800.000
G1 E1.50000 F3600.00000
G1 X102.858 Y94.021 E1.65742 F2131.207
G1 E0.15742 F3600.00000
G92 E0
G1 X104.309 Y94.994 F7800.000
G1 E1.50000 F3600.00000
G1 X105.006 Y95.691 E1.53529 F2131.207
M104 S200 ; set temperature
G1 E0.03529 F3600.00000
G92 E0
G1 Z0.480 F7800.000
G1 X104.956 Y104.943 F7800.000
G1 E1.50000 F3600.00000
G1 X104.427 Y105.423 E1.51643 F1172.950
G1 X103.863 Y105.838 E1.53252
G1 X103.103 Y106.246 E1.55235
G1 X102.558 Y106.500 E1.56618
G1 X101.956 Y106.720 E1.58090
G1 X101.340 Y106.879 E1.59552
G1 X100.692 Y106.981 E1.61061
G1 X100.000 Y107.017 E1.62654
G1 X99.308 Y106.981 E1.64246
G1 X98.660 Y106.879 E1.65755
G1 X98.044 Y106.720 E1.67217
G1 X97.442 Y106.500 E1.68689
G1 X96.417 Y106.000 E1.71312
G1 X96.137 Y105.838 E1.72055
G1 X95.573 Y105.423 E1.73664
G1 X95.050 Y104.950 E1.75285
G1 X94.577 Y104.427 E1.76907
G1 X94.162 Y103.863 E1.78516
G1 X93.754 Y103.103 E1.80499
G1 X93.500 Y102.558 E1.81882
G1 X93.280 Y101.956 E1.83354
G1 X93.121 Y101.340 E1.84816
G1 X93.019 Y100.692 E1.86325
G1 X92.983 Y100.000 E1.87917
G1 X93.019 Y99.308 E1.89510
G1 X93.121 Y98.660 E1.91019
G1 X93.280 Y98.044 E1.92480
G1 X93.500 Y97.442 E1.93952
G1 X93.754 Y96.897 E1.95336
G1 X94.162 Y96.137 E1.97319
G1 X94.577 Y95.573 E1.98927
G1 X95.050 Y95.050 E2.00549
G1 X95.573 Y94.577 E2.02170
G1 X96.137 Y94.162 E2.03779
G1 X96.897 Y93.754 E2.05762
G1 X97.442 Y93.500 E2.07145
G1 X98.044 Y93.280 E2.08617
G1 X98.660 Y93.121 E2.10079
G1 X99.304 Y93.020 E2.11578
G1 X100.085 Y92.987 E2.13376
G1 X100.691 Y93.019 E2.14771
G1 X101.340 Y93.121 E2.16281 F1172.950
G1 X101.956 Y93.280 E2.17743
G1 X102.558 Y93.500 E2.19215
G1 X103.583 Y94.000 E2.21838
G1 X103.863 Y94.162 E2.22581
G1 X104.427 Y94.577 E2.24190
G1 X104.950 Y95.050 E2.25812
G1 X105.423 Y95.573 E2.27433
G1 X105.838 Y96.137 E2.29042
G1 X106.246 Y96.897 E2.31025
G1 X106.500 Y97.442 E2.32408
G1 X106.720 Y98.044 E2.33880
G1 X106.879 Y98.660 E2.35342
G1 X106.981 Y99.308 E2.36851
G1 X107.017 Y100.000 E2.38443
G1 X106.981 Y100.692 E2.40036
G1 X106.879 Y101.340 E2.41545
G1 X106.720 Y101.956 E2.43007
G1 X106.500 Y102.558 E2.44479
G1 X106.000 Y103.583 E2.47102
G1 X105.838 Y103.863 E2.47845
G1 X105.423 Y104.427 E2.49454
G1 X104.996 Y104.898 E2.50915
G1 X105.224 Y105.185 F7800.000
G1 X104.655 Y105.703 E2.52684 F1172.950
G1 X104.061 Y106.140 E2.54379
G1 X103.262 Y106.571 E2.56467
G1 X102.696 Y106.835 E2.57902
