; generated by Slic3r 1.2.9 on 2016-09-17 at 23:49:45

; external perimeters extrusion width = 0.40mm
; perimeters extrusion width = 0.40mm
; infill extrusion width = 1.42mm
; solid infill extrusion width = 0.68mm
; top infill extrusion width = 0.40mm

M190 S50 ; set bed temperature
M104 S205 ; set temperature
M42 S1 ; enciende el LED
G4 P500;
M42 S0 ; apaga el LED
G4 P500;
M42 S1 ; enciende el LED
G4 P100;
M42 S0 ; apaga el LED
G4 P100;
M42 S1 ; enciende el LED
G4 P100;
M42 S0 ; apaga el LED
G4 P400;
M42 S1 ; enciende el LED
G4 P500;
M42 S0 ; apaga el LED

G28 ; home all axes
M109 S205 ; wait for temperature to be reached
G21 ; set units to millimeters
G90 ; use absolute coordinates
M82 ; use absolute distances for extrusion
G92 E0
M106 S255
G1 E-1.50000 F3600.00000
G92 E0
G1 Z0.300 F7800.000
G1 X87.790 Y76.025 F7800.000
G1 E1.50000 F3600.00000
M204 S1000
G1 X88.436 Y75.322 E1.53397 F2160.000
G1 X89.025 Y74.790 E1.56218
G1 X89.280 Y74.592 E1.57369
G1 X89.791 Y74.219 E1.59619
G1 X90.476 Y73.809 E1.62458
G1 X90.880 Y73.602 E1.64076
G1 X91.479 Y73.330 E1.66416
G1 X92.423 Y72.997 E1.69977
G1 X93.300 Y72.788 E1.73185
G1 X94.191 Y72.665 E1.76386
G1 X94.926 Y72.630 E1.79005
G1 X95.526 Y72.650 E1.81140
G1 X95.949 Y72.678 E1.82647 F2160.000
G1 X96.700 Y72.788 E1.85350
G1 X97.676 Y73.027 E1.88924
G1 X98.441 Y73.296 E1.91810
G1 X99.120 Y73.602 E1.94459
G1 X99.524 Y73.809 E1.96076
G1 X100.065 Y74.125 E1.98303
G1 X100.851 Y74.689 E2.01745
G1 X101.564 Y75.322 E2.05137
G1 X102.311 Y76.149 E2.09105
G1 X102.875 Y76.935 E2.12547
G1 X103.191 Y77.476 E2.14774
G1 X103.383 Y77.847 E2.16262
G1 X118.505 Y109.306 E3.40458
G1 X118.670 Y110.030 E3.43100
G1 X118.670 Y121.970 E3.85584
G1 X118.180 Y123.152 E3.90137
G1 X116.059 Y125.272 E4.00807
G1 X115.637 Y125.579 E4.02665
G1 X112.849 Y127.000 E4.13799
G1 X112.352 Y127.162 E4.15659
G1 X109.262 Y127.652 E4.26792
G1 X109.000 Y127.672 E4.27726
G1 X91.000 Y127.672 E4.91772
G1 X90.738 Y127.652 E4.92706
G1 X87.648 Y127.162 E5.03838
G1 X87.151 Y127.000 E5.05698
G1 X84.363 Y125.579 E5.16833
G1 X83.940 Y125.272 E5.18692
G1 X81.728 Y123.060 E5.29823
G1 X81.421 Y122.637 E5.31683
G1 X80.000 Y119.849 E5.42817
G1 X79.838 Y119.352 E5.44677
G1 X79.348 Y116.262 E5.55809
G1 X79.348 Y115.738 E5.57672
G1 X79.845 Y112.608 E5.68950
G1 X85.811 Y80.185 E6.86249
G1 X85.997 Y79.423 E6.89042
G1 X86.224 Y78.748 E6.91576
G1 X86.602 Y77.880 E6.94944
G1 X86.809 Y77.476 E6.96561
G1 X87.125 Y76.935 E6.98788
G1 X87.752 Y76.071 E7.02587
G1 X88.040 Y76.250 F7800.000
G1 X88.662 Y75.570 E7.05865 F2160.000
G1 X89.250 Y75.040 E7.08682
G1 X89.478 Y74.863 E7.09710
G1 X89.989 Y74.490 E7.11960
G1 X90.645 Y74.099 E7.14677
G1 X91.618 Y73.636 E7.18512
G1 X92.511 Y73.321 E7.21883
G1 X93.353 Y73.119 E7.24964
G1 X94.209 Y73.000 E7.28037
G1 X94.941 Y72.965 E7.30645
G1 X95.511 Y72.985 E7.32675
G1 X95.903 Y73.011 E7.34071 F2160.000
G1 X96.647 Y73.119 E7.36746
G1 X97.489 Y73.321 E7.39827
G1 X98.318 Y73.609 E7.42951
G1 X98.981 Y73.908 E7.45538
G1 X99.355 Y74.099 E7.47035
G1 X100.011 Y74.490 E7.49751
G1 X100.651 Y74.958 E7.52572
G1 X101.338 Y75.570 E7.55846
G1 X102.042 Y76.349 E7.59580
G1 X102.586 Y77.104 E7.62891
G1 X103.080 Y77.993 E7.66510
G1 X118.203 Y109.451 E8.90705
G1 X118.335 Y110.030 E8.92817
G1 X118.335 Y121.970 E9.35301
G1 X117.943 Y122.915 E9.38939
G1 X115.822 Y125.035 E9.49610
G1 X115.485 Y125.280 E9.51095
G1 X112.697 Y126.701 E9.62229
G1 X112.299 Y126.830 E9.63715
G1 X109.209 Y127.320 E9.74847
G1 X109.000 Y127.337 E9.75594
G1 X91.000 Y127.337 E10.39640
G1 X90.791 Y127.320 E10.40387
G1 X87.701 Y126.830 E10.51519
G1 X87.303 Y126.701 E10.53005
G1 X84.515 Y125.280 E10.64140
G1 X84.178 Y125.034 E10.65626
G1 X81.966 Y122.822 E10.76757
G1 X81.720 Y122.485 E10.78243
G1 X80.299 Y119.697 E10.89377
G1 X80.170 Y119.299 E10.90864
G1 X79.680 Y116.209 E11.01996
G1 X79.680 Y115.791 E11.03484
G1 X80.175 Y112.668 E11.14733
G1 X86.137 Y80.262 E12.31974
G1 X86.321 Y79.511 E12.34724
G1 X86.541 Y78.856 E12.37184
G1 X86.908 Y78.019 E12.40435
G1 X87.099 Y77.645 E12.41932
G1 X87.414 Y77.104 E12.44159
G1 X88.002 Y76.296 E12.47712
G1 E10.97712 F3600.00000
G92 E0
G1 X114.203 Y118.376 F7800.000
G1 E1.50000 F3600.00000
G1 X108.500 Y121.227 E1.72686 F960.000
G1 X102.797 Y118.376 E1.95373
G1 X102.797 Y112.625 E2.15833
G1 X108.500 Y109.773 E2.38521
G1 X114.203 Y112.625 E2.61209
G1 X114.203 Y118.316 E2.81455
G1 X114.325 Y118.757 F7800.000
G1 E1.31455 F3600.00000
G92 E0
G1 X102.126 Y118.790 F7800.000
G1 E1.50000 F3600.00000
G1 X108.500 Y121.977 E1.75356 F2400.000
G1 X114.581 Y118.937 E1.99545
G1 X114.648 Y119.364 E2.01081
G1 X115.906 Y121.831 E2.10935
G1 X114.360 Y123.376 E2.18713
G1 X111.817 Y124.672 E2.28866
G1 X109.000 Y125.119 E2.39015
G1 X106.183 Y124.672 E2.49165
G1 X103.641 Y123.376 E2.59317
G1 X101.624 Y121.359 E2.69466
G1 X100.000 Y118.175 E2.82185
G1 X98.376 Y121.359 E2.94904
G1 X96.359 Y123.376 E3.05054
G1 X93.817 Y124.672 E3.15206
G1 X91.000 Y125.119 E3.25356
G1 X88.183 Y124.672 E3.35505
G1 X85.641 Y123.376 E3.45658
G1 X83.624 Y121.359 E3.55807
G1 X82.328 Y118.817 E3.65960
G1 X81.881 Y116.000 E3.76109
G1 X82.328 Y113.183 E3.86259
G1 X83.624 Y110.641 E3.96411
G1 X85.641 Y108.624 E4.06560
G1 X88.183 Y107.328 E4.16713
G1 X91.000 Y106.881 E4.26862
G1 X93.817 Y107.328 E4.37012
G1 X96.359 Y108.624 E4.47164
G1 X98.376 Y110.641 E4.57314
G1 X100.000 Y113.825 E4.70033
G1 X101.624 Y110.641 E4.82752
G1 X103.641 Y108.624 E4.92901
G1 X106.183 Y107.328 E5.03053
G1 X109.000 Y106.881 E5.13203
G1 X111.817 Y107.328 E5.23352
G1 X114.360 Y108.624 E5.33505
G1 X115.906 Y110.169 E5.41283
G1 X114.867 Y112.207 E5.49422
G1 X108.500 Y109.023 E5.74752
G1 X102.126 Y112.211 E6.00110
G1 X102.126 Y118.730 E6.23309
G1 X102.461 Y118.583 F7800.000
G1 X108.500 Y121.602 E6.47330 F2400.000
G1 X114.539 Y118.583 E6.71351
G1 X114.539 Y117.712 E6.74452
G1 X114.724 Y117.697 E6.75114
G1 X114.971 Y119.259 E6.80739
G1 X116.315 Y121.896 E6.91272
G1 X114.559 Y123.651 E7.00106
G1 X111.922 Y124.995 E7.10637
G1 X109.000 Y125.459 E7.21165
G1 X106.078 Y124.995 E7.31693
G1 X103.441 Y123.651 E7.42224
G1 X101.349 Y121.559 E7.52751
G1 X100.000 Y118.914 E7.63317
G1 X98.651 Y121.559 E7.73883
G1 X96.559 Y123.651 E7.84410
G1 X93.922 Y124.995 E7.94941
G1 X91.000 Y125.459 E8.05469
G1 X88.078 Y124.995 E8.15997
G1 X85.441 Y123.651 E8.26527
G1 X83.349 Y121.559 E8.37055
G1 X82.005 Y118.922 E8.47585
G1 X81.541 Y116.000 E8.58113
G1 X82.005 Y113.078 E8.68641
G1 X83.349 Y110.441 E8.79172
G1 X85.441 Y108.349 E8.89699
G1 X88.078 Y107.005 E9.00230
G1 X91.000 Y106.541 E9.10758
G1 X93.922 Y107.005 E9.21286
G1 X96.559 Y108.349 E9.31817
G1 X98.651 Y110.441 E9.42344
G1 X100.000 Y113.086 E9.52910
G1 X101.349 Y110.441 E9.63475
G1 X103.441 Y108.349 E9.74003
G1 X106.078 Y107.005 E9.84533
G1 X109.000 Y106.541 E9.95061
G1 X111.922 Y107.005 E10.05589
G1 X114.559 Y108.349 E10.16120
G1 X116.315 Y110.104 E10.24955
G1 X114.971 Y112.741 E10.35488
G1 X114.724 Y114.303 E10.41113
G1 X114.539 Y114.288 E10.41775
G1 X114.539 Y112.418 E10.48430
G1 X108.500 Y109.398 E10.72453
G1 X102.461 Y112.418 E10.96476
G1 X102.461 Y118.523 E11.18199
G1 E9.68199 F3600.00000
G92 E0
G1 X100.000 Y119.653 F7800.000
G1 E1.50000 F3600.00000
G1 X98.926 Y121.759 E1.58412 F1680.000
G1 X96.759 Y123.926 E1.69318
G1 X94.027 Y125.318 E1.80227
G1 X91.000 Y125.799 E1.91133
G1 X87.973 Y125.318 E2.02039
G1 X85.241 Y123.926 E2.12948
G1 X83.074 Y121.759 E2.23854
G1 X81.682 Y119.027 E2.34763
G1 X81.201 Y116.000 E2.45669
G1 X81.682 Y112.973 E2.56575
G1 X83.074 Y110.241 E2.67484
G1 X85.241 Y108.074 E2.78390
G1 X87.973 Y106.682 E2.89299
G1 X91.000 Y106.201 E3.00205
G1 X94.027 Y106.682 E3.11112
G1 X96.759 Y108.074 E3.22020
G1 X98.926 Y110.241 E3.32926
G1 X100.000 Y112.347 E3.41338
G1 X101.074 Y110.241 E3.49750
G1 X103.241 Y108.074 E3.60656
G1 X105.973 Y106.682 E3.71564
G1 X109.000 Y106.201 E3.82471
G1 X112.027 Y106.682 E3.93377
G1 X114.759 Y108.074 E4.04286
G1 X116.725 Y110.039 E4.14178
G1 X115.294 Y112.846 E4.25389
G1 X114.796 Y116.000 E4.36750
G1 X115.294 Y119.154 E4.48110
G1 X116.725 Y121.961 E4.59321
G1 X114.759 Y123.926 E4.69213
G1 X112.027 Y125.318 E4.80122
G1 X109.000 Y125.799 E4.91029
G1 X105.973 Y125.318 E5.01935
G1 X103.241 Y123.926 E5.12844
G1 X101.074 Y121.759 E5.23749
G1 X100.027 Y119.706 E5.31948
G1 X99.689 Y119.401 F7800.000
G1 X100.632 Y119.010 F7800.000
G1 X105.989 Y124.367 E5.58962 F2400.000
G1 X106.693 Y124.595 E5.61600
G1 X89.372 Y107.274 E6.48944
G1 X89.783 Y107.209 E6.50426
G1 X107.258 Y124.685 E7.38550
G1 X107.824 Y124.775 E7.40590
G1 X90.193 Y107.144 E8.29495
G1 X90.604 Y107.079 E8.30977
G1 X101.982 Y118.457 E8.88353
G1 X101.982 Y117.982 E8.90049
G1 X91.047 Y107.046 E9.45193
G1 X91.612 Y107.136 E9.47234
G1 X101.982 Y117.506 E9.99527
G1 X101.982 Y117.030 E10.01223
G1 X92.177 Y107.225 E10.50666
G1 E9.00666 F3600.00000
G92 E0
G1 X94.012 Y107.633 F7800.000
G1 E1.50000 F3600.00000
G1 X99.367 Y112.989 E1.77004 F2400.000
G1 E0.27004 F3600.00000
G92 E0
G1 X98.872 Y112.018 F7800.000
G1 E1.50000 F3600.00000
G1 X94.982 Y108.128 E1.69618 F2400.000
G1 E0.19618 F3600.00000
G92 E0
G1 X95.952 Y108.622 F7800.000
G1 E1.50000 F3600.00000
G1 X98.378 Y111.048 E1.62232 F2400.000
G1 E0.12232 F3600.00000
G92 E0
G1 X100.157 Y113.779 F7800.000
G1 E1.50000 F3600.00000
G1 X101.982 Y115.603 E1.59201 F2400.000
G1 X101.982 Y115.128 E1.60897
G1 X100.318 Y113.464 E1.69288
G1 X100.479 Y113.149 E1.70549
G1 X101.982 Y114.652 E1.78130
G1 X101.982 Y114.177 E1.79826
G1 X100.639 Y112.834 E1.86598
G1 X100.800 Y112.519 E1.87859
G1 X101.982 Y113.701 E1.93820
G1 X101.982 Y113.225 E1.95516
G1 X100.960 Y112.204 E2.00668
G1 X101.121 Y111.889 E2.01929
G1 X101.982 Y112.750 E2.06271
G1 X101.982 Y112.274 E2.07967
G1 X101.282 Y111.574 E2.11498
G1 X101.442 Y111.259 E2.12759
G1 X102.216 Y112.032 E2.16660
G1 X102.533 Y111.874 E2.17924
G1 X101.603 Y110.943 E2.22614
G1 X101.780 Y110.645 E2.23851
G1 X102.850 Y111.715 E2.29245
G1 X103.167 Y111.556 E2.30509
G1 X102.018 Y110.407 E2.36302
G1 X102.256 Y110.170 E2.37501
G1 X103.484 Y111.398 E2.43694
G1 X103.801 Y111.239 E2.44959
G1 X102.494 Y109.932 E2.51551
G1 X102.732 Y109.694 E2.52750
G1 X104.118 Y111.081 E2.59743
G1 X104.435 Y110.922 E2.61007
G1 X102.969 Y109.456 E2.68399
G1 X103.207 Y109.218 E2.69598
G1 X104.752 Y110.764 E2.77390
G1 X105.069 Y110.605 E2.78654
G1 X103.445 Y108.981 E2.86845
G1 X103.683 Y108.743 E2.88044
G1 X105.387 Y110.446 E2.96635
G1 X105.704 Y110.288 E2.97899
G1 X103.993 Y108.578 E3.06524
G1 X104.308 Y108.417 E3.07785
G1 X106.021 Y110.129 E3.16419
G1 X106.338 Y109.971 E3.17683
G1 X104.623 Y108.256 E3.26328
G1 X104.939 Y108.096 E3.27589
G1 X106.655 Y109.812 E3.36244
G1 X106.972 Y109.654 E3.37508
G1 X105.254 Y107.935 E3.46174
G1 X105.569 Y107.775 E3.47434
G1 X107.289 Y109.495 E3.56110
G1 X107.606 Y109.336 E3.57374
G1 X105.884 Y107.614 E3.66059
G1 X106.205 Y107.459 E3.67330
G1 X107.923 Y109.178 E3.75995
G1 X108.240 Y109.019 E3.77259
G1 X106.615 Y107.394 E3.85453
G1 X107.026 Y107.329 E3.86935
G1 X108.557 Y108.861 E3.94658
G1 E2.44658 F3600.00000
G92 E0
G1 X109.481 Y109.309 F7800.000
G1 E1.50000 F3600.00000
G1 X107.436 Y107.264 E1.60311 F2400.000
G1 X107.847 Y107.199 E1.61793
G1 X110.433 Y109.785 E1.74831
G1 E0.24831 F3600.00000
G92 E0
G1 X111.384 Y110.260 F7800.000
G1 E1.50000 F3600.00000
G1 X108.258 Y107.134 E1.65766 F2400.000
G1 X108.668 Y107.069 E1.67248
G1 X112.336 Y110.736 E1.85742
G1 E0.35742 F3600.00000
G92 E0
G1 X113.287 Y111.212 F7800.000
G1 E1.50000 F3600.00000
G1 X109.135 Y107.060 E1.70936 F2400.000
G1 X109.700 Y107.150 E1.72977
G1 X114.238 Y111.688 E1.95861
G1 X114.902 Y111.876 E1.98320
G1 X110.266 Y107.240 E2.21699
G1 X110.831 Y107.329 E2.23740
G1 X115.063 Y111.561 E2.45078
G1 X115.223 Y111.246 E2.46339
G1 X111.396 Y107.419 E2.65637
G1 X112.164 Y107.711 F7800.000
G1 X115.384 Y110.931 E2.81873 F2400.000
G1 X115.544 Y110.616 E2.83134
G1 X113.134 Y108.205 E2.95288
G1 E1.45288 F3600.00000
G92 E0
G1 X114.104 Y108.700 F7800.000
G1 E1.50000 F3600.00000
G1 X115.705 Y110.301 E1.58072 F2400.000
G1 E0.08072 F3600.00000
G92 E0
G1 X114.585 Y119.645 F7800.000
G1 E1.50000 F3600.00000
G1 X114.201 Y119.261 E1.51938 F2400.000
G1 X113.884 Y119.419 E1.53202
G1 X115.080 Y120.615 E1.59233
G1 E0.09233 F3600.00000
G92 E0
G1 X115.574 Y121.585 F7800.000
G1 E1.50000 F3600.00000
G1 X113.567 Y119.578 E1.60123 F2400.000
G1 X113.249 Y119.736 E1.61387
G1 X115.530 Y122.017 E1.72887
G1 X115.292 Y122.255 E1.74086
G1 X112.932 Y119.895 E1.85986
G1 X112.615 Y120.053 E1.87250
G1 X115.054 Y122.492 E1.99550
G1 X114.817 Y122.730 E2.00749
G1 X112.298 Y120.212 E2.13449
G1 X111.981 Y120.370 E2.14713
G1 X114.579 Y122.968 E2.27812
G1 X114.341 Y123.206 E2.29012
G1 X111.664 Y120.529 E2.42511
G1 X111.347 Y120.687 E2.43775
G1 X114.056 Y123.397 E2.57439
G1 X113.741 Y123.558 E2.58700
G1 X111.030 Y120.846 E2.72374
G1 X110.713 Y121.004 E2.73638
G1 X113.426 Y123.718 E2.87323
G1 X113.111 Y123.879 E2.88584
G1 X110.395 Y121.163 E3.02279
G1 X110.078 Y121.322 E3.03543
G1 X112.796 Y124.039 E3.17249
G1 X112.481 Y124.200 E3.18510
G1 X109.761 Y121.480 E3.32226
G1 X109.444 Y121.639 E3.33490
G1 X112.166 Y124.361 E3.47216
G1 X111.851 Y124.521 E3.48477
G1 X109.127 Y121.797 E3.62213
G1 X108.810 Y121.956 E3.63478
G1 X111.450 Y124.595 E3.76789
G1 X111.039 Y124.660 E3.78271
G1 X108.493 Y122.114 E3.91111
G1 X107.669 Y121.766 F7800.000
G1 X110.628 Y124.726 E4.06032 F2400.000
G1 X110.218 Y124.791 E4.07514
G1 X106.718 Y121.291 E4.25162
G1 E2.75162 F3600.00000
G92 E0
G1 X105.767 Y120.816 F7800.000
G1 E1.50000 F3600.00000
G1 X109.807 Y124.856 E1.70373 F2400.000
G1 X109.397 Y124.921 E1.71855
G1 X104.816 Y120.340 E1.94955
G1 E0.44955 F3600.00000
G92 E0
G1 X103.865 Y119.865 F7800.000
G1 E1.50000 F3600.00000
G1 X108.954 Y124.954 E1.75664 F2400.000
G1 X108.389 Y124.864 E1.77705
G1 X102.914 Y119.389 E2.05314
G1 E0.55314 F3600.00000
G92 E0
G1 X101.127 Y119.980 F7800.000
G1 E1.50000 F3600.00000
G1 X105.019 Y123.873 E1.69628 F2400.000
G1 E0.19628 F3600.00000
G92 E0
G1 X104.049 Y123.378 F7800.000
G1 E1.50000 F3600.00000
G1 X101.622 Y120.951 E1.62242 F2400.000
G1 E0.12242 F3600.00000
G92 E0
G1 X99.682 Y118.536 F7800.000
G1 E1.50000 F3600.00000
G1 X88.551 Y107.405 E2.06131 F2400.000
G1 X88.149 Y107.479 E2.07587
G1 X99.522 Y118.851 E2.64933
G1 X99.361 Y119.166 E2.66194
G1 X87.834 Y107.639 E3.24318
G1 X87.519 Y107.800 E3.25579
G1 X99.200 Y119.481 E3.84483
G1 X99.040 Y119.796 E3.85744
G1 X87.204 Y107.960 E4.45426
G1 X86.889 Y108.121 E4.46687
G1 X98.879 Y120.111 E5.07149
G1 X98.719 Y120.426 E5.08409
G1 X86.574 Y108.282 E5.69650
G1 X86.259 Y108.442 E5.70911
G1 X98.558 Y120.741 E6.32930
G1 X98.397 Y121.056 E6.34190
G1 X85.944 Y108.603 E6.96988
G1 X85.660 Y108.794 E6.98210
G1 X98.220 Y121.354 E7.61547
G1 X97.982 Y121.592 E7.62746
G1 X85.422 Y109.032 E8.26082
G1 X85.184 Y109.270 E8.27282
G1 X97.744 Y121.830 E8.90618
G1 X97.507 Y122.068 E8.91817
G1 X84.946 Y109.508 E9.55154
G1 X84.709 Y109.745 E9.56353
G1 X97.269 Y122.306 E10.19690
G1 X97.031 Y122.543 E10.20889
G1 X84.471 Y109.983 E10.84225
G1 X84.233 Y110.221 E10.85425
G1 X96.793 Y122.781 E11.48761
G1 X96.555 Y123.019 E11.49960
G1 X83.995 Y110.459 E12.13297
G1 X83.757 Y110.697 E12.14496
G1 X96.317 Y123.257 E12.77833
G1 X96.007 Y123.422 E12.79086
G1 X83.578 Y110.993 E13.41763
G1 X83.417 Y111.308 E13.43024
G1 X95.692 Y123.583 E14.04922
G1 X95.377 Y123.743 E14.06183
G1 X83.257 Y111.623 E14.67302
G1 X83.096 Y111.938 E14.68563
G1 X95.062 Y123.904 E15.28902
G1 X94.747 Y124.065 E15.30163
G1 X82.935 Y112.253 E15.89724
G1 X82.775 Y112.568 E15.90985
G1 X94.432 Y124.225 E16.49767
G1 X94.117 Y124.386 E16.51028
G1 X82.614 Y112.883 E17.09031
G1 X82.460 Y113.204 E17.10301
G1 X93.796 Y124.540 E17.67465
G1 X93.385 Y124.606 E17.68948
G1 X82.394 Y113.615 E18.24370
G1 X82.329 Y114.025 E18.25852
G1 X92.975 Y124.671 E18.79532
G1 X92.564 Y124.736 E18.81014
G1 X82.264 Y114.436 E19.32953
G1 X82.199 Y114.846 E19.34435
G1 X92.154 Y124.801 E19.84631
G1 X91.743 Y124.866 E19.86114
G1 X82.134 Y115.257 E20.34568
G1 X82.069 Y115.668 E20.36050
G1 X91.332 Y124.931 E20.82763
G1 X90.866 Y124.940 E20.84428
G1 X82.060 Y116.134 E21.28831
G1 X82.150 Y116.700 E21.30872
G1 X90.300 Y124.850 E21.71972
